X:1
T:The Foggy, Foggy Dew
M:4/4
L:1/8
K:G
 D2| G2 GG B G2 G| E2 EE A3 D| D2 FF A2 c2| B2- G4| DD| GG GG BB BB|\
 E2 E2 A2 GG| F2 D2 E2 F2| G6| z D| D2- D3/2 F/2 A2- A3/2 c/2| B G2 D- D4|\
 z2 z z/2 D/2 D3/2 D/2 c3/2 c/2| B6| DD| GG GG BB BB| B2 E2 A2 GG|\
 FF FD EE FD| G6||
